src/symbolic/places/playlist-queue-symbolic.svg

<?xml version="1.0" encoding="UTF-8" standalone="no"?>
<svg
   xmlns:dc="http://purl.org/dc/elements/1.1/"
   xmlns:cc="http://creativecommons.org/ns#"
   xmlns:rdf="http://www.w3.org/1999/02/22-rdf-syntax-ns#"
   xmlns:svg="http://www.w3.org/2000/svg"
   xmlns="http://www.w3.org/2000/svg"
   version="1.1"
   width="16"
   height="16"
   id="svg4017">
  <defs
     id="defs4019" />
  <metadata
     id="metadata4022">
    <rdf:RDF>
      <cc:Work
         rdf:about="">
        <dc:format>image/svg+xml</dc:format>
        <dc:type
           rdf:resource="http://purl.org/dc/dcmitype/StillImage" />
        <dc:title></dc:title>
      </cc:Work>
    </rdf:RDF>
  </metadata>
  <path
     id="rect868-3-6"
     d="M 5 2 L 5 14 L 16 14 L 16 2 L 5 2 z M 3 3 L 3 13 L 4 12.888672 L 4 3.1113281 L 3 3 z M 10.466797 3.9179688 C 10.610009 3.9168305 10.754284 3.9621139 10.830078 4.0859375 C 10.887937 4.428514 11.007416 4.7681358 11.195312 5.0683594 C 11.383002 5.4586977 11.740401 5.7459631 12.015625 6.0820312 C 12.791049 7.0284046 12.743831 8.443005 12.025391 9.40625 C 11.957927 9.47993 11.89671 9.6368656 11.777344 9.6035156 C 11.732764 9.5818076 11.671489 9.52593 11.699219 9.46875 C 11.905349 8.995083 12.051722 8.4754301 12.044922 7.9550781 C 12.057647 7.2352161 11.501246 6.6238607 10.882812 6.296875 L 10.882812 10.011719 C 10.882812 10.846543 10.451449 11.49174 9.7070312 11.667969 C 9.0499053 11.867774 8.251595 11.430575 8.171875 10.757812 C 8.114994 10.039392 8.7300774 9.4139966 9.4199219 9.2304688 C 9.6495158 9.1627186 9.9135414 9.14471 10.117188 9.1875 L 10.117188 4.4960938 C 10.082152 4.2573805 10.134836 3.8992326 10.466797 3.9179688 z M 1 4 L 1 12 L 2 11.699219 L 2 4.4003906 L 1 4 z "
     style="opacity:1;vector-effect:none;fill:#555761;fill-opacity:1;stroke:none;stroke-width:0.99999994;stroke-linecap:butt;stroke-linejoin:round;stroke-miterlimit:4;stroke-dasharray:none;stroke-dashoffset:0;stroke-opacity:1;marker:none;paint-order:normal" />
</svg>

<svg xmlns="http://www.w3.org/2000/svg" width="16" height="16"><path d="M5 2v12h11V2H5zM3 3v10l1-.111V3.11L3 3zm7.467.918c.143-.001.287.044.363.168.058.343.177.682.365.982.188.39.545.678.82 1.014.776.946.729 2.361.01 3.324-.067.074-.128.23-.248.198-.044-.022-.106-.078-.078-.135.206-.474.353-.994.346-1.514.013-.72-.544-1.331-1.162-1.658v3.715c0 .835-.432 1.48-1.176 1.656-.657.2-1.455-.237-1.535-.91-.057-.719.558-1.344 1.248-1.528.23-.067.494-.085.697-.043v-4.69c-.035-.24.018-.598.35-.579zM1 4v8l1-.3V4.4L1 4z" style="marker:none" fill="#555761"/></svg>
